webapp/src/assets/icons/cloudproviders/aws/architecture_services/elastic_container_registry.svg

<?xml version="1.0" encoding="UTF-8"?>
<svg width="24px" height="24px" viewBox="0 0 24 24" version="1.1" xmlns="http://www.w3.org/2000/svg" xmlns:xlink="http://www.w3.org/1999/xlink">
    <title>Icon-Architecture/16/Arch_Amazon-Elastic-Container-Registry_16</title>
    <g id="Icon-Architecture/16/Arch_Amazon-Elastic-Container-Registry_16" stroke="none" stroke-width="1" fill="none" fill-rule="evenodd">
        <path d="M11.1991144,11.534159 C11.0011427,11.65002 10.8781603,11.8647623 10.8781603,12.0944866 L10.8781603,18.7544946 L5.99985716,16.0297643 L5.99985716,9.37075509 L11.7890301,6.03276069 L16.6123411,8.41190571 L11.1991144,11.534159 Z M17.9981431,8.38893328 C17.9981431,8.15421494 17.8711613,7.93647623 17.6411941,7.80663204 L11.9550064,5 L11.5550636,5.01398322 L5.32095415,8.6086696 C5.12298243,8.72453056 5,8.93927287 5,9.1679984 L5,16.2365162 C5,16.4672393 5.12498215,16.6829804 5.32995286,16.800839 L10.9031567,19.9131043 C11.0041423,19.9710348 11.1161263,20 11.2281103,20 C11.3410941,20 11.4530781,19.9710348 11.5530638,19.9141031 C11.7530353,19.7982421 11.8780174,19.5834998 11.8780174,19.3527767 L11.8780174,12.2962445 L17.6681903,8.9572513 C17.8711613,8.84039153 17.9981431,8.62265282 17.9981431,8.38893328 L17.9981431,8.38893328 Z M18.0001428,15.7780663 L13.9987145,18.6705953 L13.9987145,16.5271674 L15.9574347,15.140831 L15.9904299,14.9330803 C15.9964291,14.894127 16.0004285,14.894127 16.0004285,14.7163404 L16.0004285,12.2812625 L18.0001428,11.1855773 L18.0001428,15.7780663 Z M18.6250536,10.1498202 C18.3890873,10.0079904 18.104128,10.0009988 17.8611627,10.1288454 L15.4695044,11.4312825 C15.1795458,11.5840991 15.0005713,11.8817419 15.0005713,12.20835 L15.0025711,14.5934878 L13.2978146,15.7990412 C13.112841,15.9188973 12.9988573,16.1256492 12.9988573,16.3463843 L12.9988573,19.3497803 C12.9988573,19.5815022 13.1238395,19.7982421 13.3258106,19.9141031 C13.420797,19.9680384 13.5267819,19.9970036 13.6367662,19.9970036 C13.7617483,19.9970036 13.8907299,19.9610467 14.0187116,19.8851378 L18.6730467,16.5211746 C18.874018,16.4053136 19,16.1895725 19,15.9568518 L19,10.8130244 C19,10.5393528 18.8590201,10.29165 18.6250536,10.1498202 L18.6250536,10.1498202 Z" id="Amazon-Elastic-Container-Registry_Icon_16_Squid" fill="#ED7100"></path>
    </g>
</svg>

<svg width="24" height="24" xmlns="http://www.w3.org/2000/svg"><path d="M11.2 11.534a.651.651 0 0 0-.322.56v6.66L6 16.03V9.37l5.789-3.337 4.823 2.379-5.413 3.122Zm6.798-3.145a.666.666 0 0 0-.357-.582L11.955 5l-.4.014-6.234 3.595A.651.651 0 0 0 5 9.168v7.069c0 .23.125.446.33.564l5.573 3.112a.652.652 0 0 0 .65.001.65.65 0 0 0 .325-.561v-7.057l5.79-3.339a.659.659 0 0 0 .33-.568Zm.002 7.39-4 2.891v-2.144l1.958-1.386.033-.208c.006-.039.01-.039.01-.217V12.28l2-1.095v4.592Zm.625-5.63a.772.772 0 0 0-.764-.02L15.47 11.43a.876.876 0 0 0-.47.777l.003 2.385-1.705 1.206a.655.655 0 0 0-.3.547v3.004c0 .232.126.448.328.564a.627.627 0 0 0 .31.083.745.745 0 0 0 .383-.112l4.654-3.364a.653.653 0 0 0 .327-.564v-5.144a.77.77 0 0 0-.375-.663Z" fill="#ED7100" fill-rule="evenodd"/></svg>
